assets/images/icons/record.svg

<!DOCTYPE svg PUBLIC "-//W3C//DTD SVG 1.1//EN" "http://www.w3.org/Graphics/SVG/1.1/DTD/svg11.dtd">
<!-- Uploaded to: SVG Repo, www.svgrepo.com, Transformed by: SVG Repo Mixer Tools -->
<svg width="800px" height="800px" viewBox="0 0 24 24" fill="none" xmlns="http://www.w3.org/2000/svg">
<g id="SVGRepo_bgCarrier" stroke-width="0"/>
<g id="SVGRepo_tracerCarrier" stroke-linecap="round" stroke-linejoin="round"/>
<g id="SVGRepo_iconCarrier"> <path d="M8 5C8 2.79086 9.79086 1 12 1C14.2091 1 16 2.79086 16 5V12C16 14.2091 14.2091 16 12 16C9.79086 16 8 14.2091 8 12V5Z" fill="#5A121A"/> <path d="M6.25 11.8438V12C6.25 13.525 6.8558 14.9875 7.93414 16.0659C9.01247 17.1442 10.475 17.75 12 17.75C13.525 17.75 14.9875 17.1442 16.0659 16.0659C17.1442 14.9875 17.75 13.525 17.75 12V11.8438C17.75 11.2915 18.1977 10.8438 18.75 10.8438H19.25C19.8023 10.8438 20.25 11.2915 20.25 11.8437V12C20.25 14.188 19.3808 16.2865 17.8336 17.8336C16.5842 19.0831 14.9753 19.8903 13.25 20.1548V22C13.25 22.5523 12.8023 23 12.25 23H11.75C11.1977 23 10.75 22.5523 10.75 22V20.1548C9.02471 19.8903 7.41579 19.0831 6.16637 17.8336C4.61919 16.2865 3.75 14.188 3.75 12V11.8438C3.75 11.2915 4.19772 10.8438 4.75 10.8438H5.25C5.80228 10.8438 6.25 11.2915 6.25 11.8438Z" fill="#5A121A"/> </g>
</svg>

<svg xmlns="http://www.w3.org/2000/svg" width="800" height="800" fill="none" viewBox="0 0 24 24"><g fill="#5A121A"><path d="M8 5a4 4 0 1 1 8 0v7a4 4 0 0 1-8 0V5Z"/><path d="M6.25 11.844V12a5.75 5.75 0 0 0 11.5 0v-.156a1 1 0 0 1 1-1h.5a1 1 0 0 1 1 1V12a8.25 8.25 0 0 1-7 8.155V22a1 1 0 0 1-1 1h-.5a1 1 0 0 1-1-1v-1.845a8.25 8.25 0 0 1-7-8.155v-.156a1 1 0 0 1 1-1h.5a1 1 0 0 1 1 1Z"/></g></svg>
